src/img/información-alert.svg

<svg width="22" height="21" viewBox="0 0 22 21" fill="none" xmlns="http://www.w3.org/2000/svg">
<path d="M11 0.492188C12.375 0.492188 13.6719 0.757812 14.8906 1.28906C16.1094 1.80469 17.1719 2.51562 18.0781 3.42188C18.9844 4.32812 19.6953 5.39062 20.2109 6.60938C20.7422 7.82812 21.0078 9.125 21.0078 10.5C21.0078 11.875 20.7422 13.1719 20.2109 14.3906C19.6953 15.6094 18.9844 16.6719 18.0781 17.5781C17.1719 18.4844 16.1094 19.1953 14.8906 19.7109C13.6719 20.2422 12.375 20.5078 11 20.5078C9.625 20.5078 8.32812 20.2422 7.10938 19.7109C5.89062 19.1953 4.82812 18.4844 3.92188 17.5781C3.01562 16.6719 2.30469 15.6094 1.78906 14.3906C1.25781 13.1719 0.992188 11.875 0.992188 10.5C0.992188 9.125 1.25781 7.82812 1.78906 6.60938C2.30469 5.39062 3.01562 4.32812 3.92188 3.42188C4.82812 2.51562 5.89062 1.80469 7.10938 1.28906C8.32812 0.757812 9.625 0.492188 11 0.492188ZM12.2188 13.875C12.1094 14.0312 12 14.1875 11.8906 14.3438C11.7812 14.5 11.6562 14.6562 11.5156 14.8125C11.3906 14.9531 11.2734 15.0625 11.1641 15.1406C11.0547 15.2188 10.9609 15.2578 10.8828 15.2578C10.8359 15.2578 10.7969 15.2578 10.7656 15.2578C10.75 15.2422 10.7266 15.2266 10.6953 15.2109C10.6641 15.1953 10.6406 15.1641 10.625 15.1172C10.6094 15.0703 10.6016 15.0156 10.6016 14.9531C10.6016 14.8906 10.6094 14.7969 10.625 14.6719C10.6562 14.5312 10.7031 14.3594 10.7656 14.1562C10.7812 14.0781 10.8047 13.9688 10.8359 13.8281C10.8828 13.6719 10.9297 13.4844 10.9766 13.2656L12.5 8.34375L11.75 8.48438C11.625 8.51562 11.4531 8.54688 11.2344 8.57812C11.0156 8.60938 10.7578 8.64062 10.4609 8.67188C10.1484 8.70312 9.875 8.73438 9.64062 8.76562C9.40625 8.78125 9.20312 8.79688 9.03125 8.8125V9.28125C9.23438 9.28125 9.39844 9.29688 9.52344 9.32812C9.66406 9.34375 9.76562 9.35938 9.82812 9.375C9.90625 9.40625 9.96094 9.46094 9.99219 9.53906C10.0391 9.60156 10.0625 9.69531 10.0625 9.82031C10.0625 9.83594 10.0625 9.85938 10.0625 9.89062C10.0625 9.90625 10.0547 9.92188 10.0391 9.9375C10.0391 9.96875 10.0312 9.99219 10.0156 10.0078C10.0156 10.0234 10.0156 10.0469 10.0156 10.0781L8.77344 13.9688C8.74219 14.1094 8.71094 14.2422 8.67969 14.3672C8.64844 14.4766 8.625 14.5703 8.60938 14.6484C8.5625 14.8047 8.53125 14.9375 8.51562 15.0469C8.5 15.1562 8.49219 15.25 8.49219 15.3281C8.49219 15.5156 8.52344 15.6875 8.58594 15.8438C8.64844 15.9844 8.74219 16.1094 8.86719 16.2188C8.99219 16.3125 9.125 16.3828 9.26562 16.4297C9.42188 16.4766 9.57812 16.5 9.73438 16.5C10.0156 16.5 10.2812 16.4453 10.5312 16.3359C10.7969 16.2109 11.0547 16.0312 11.3047 15.7969C11.4453 15.6562 11.625 15.4453 11.8438 15.1641C12.0625 14.8828 12.3125 14.5312 12.5938 14.1094L12.2188 13.875ZM12.9922 5.74219C12.9922 5.39844 12.8672 5.10938 12.6172 4.875C12.3828 4.625 12.0938 4.5 11.75 4.5C11.4062 4.5 11.1094 4.625 10.8594 4.875C10.625 5.10938 10.5078 5.39844 10.5078 5.74219C10.5078 6.08594 10.625 6.38281 10.8594 6.63281C11.1094 6.88281 11.4062 7.00781 11.75 7.00781C12.0938 7.00781 12.3828 6.88281 12.6172 6.63281C12.8672 6.38281 12.9922 6.08594 12.9922 5.74219Z" fill="#007AB7"/>
</svg>

<svg width="22" height="21" fill="none" xmlns="http://www.w3.org/2000/svg"><path d="M11 .492a9.63 9.63 0 013.89.797 9.928 9.928 0 013.188 2.133 9.928 9.928 0 012.133 3.187 9.63 9.63 0 01.797 3.891 9.63 9.63 0 01-.797 3.89 9.927 9.927 0 01-2.133 3.188 9.927 9.927 0 01-3.187 2.133 9.63 9.63 0 01-3.891.797 9.63 9.63 0 01-3.89-.797 9.928 9.928 0 01-3.188-2.133 9.928 9.928 0 01-2.133-3.187A9.63 9.63 0 01.992 10.5a9.63 9.63 0 01.797-3.89 9.93 9.93 0 012.133-3.188 9.93 9.93 0 013.187-2.133A9.63 9.63 0 0111 .492zm1.219 13.383l-.328.469c-.11.156-.235.312-.375.469a2.23 2.23 0 01-.352.328c-.11.078-.203.117-.281.117h-.117a.274.274 0 00-.07-.047c-.032-.016-.055-.047-.071-.094a.52.52 0 01-.023-.164c0-.062.007-.156.023-.281.031-.14.078-.313.14-.516l.07-.328c.048-.156.095-.344.142-.562L12.5 8.344l-.75.14a5.37 5.37 0 01-.516.094c-.218.031-.476.063-.773.094-.313.031-.586.062-.82.094-.235.015-.438.03-.61.046v.47c.203 0 .367.015.492.046.141.016.243.031.305.047a.283.283 0 01.164.164c.047.063.07.156.07.281v.07a.064.064 0 01-.023.047c0 .032-.008.055-.023.07v.071l-1.243 3.89a15.615 15.615 0 01-.164.68c-.046.157-.078.29-.093.399-.016.11-.024.203-.024.281 0 .188.031.36.094.516.062.14.156.265.281.375a1.4 1.4 0 00.399.21c.156.048.312.071.468.071.282 0 .547-.055.797-.164.266-.125.524-.305.774-.54.14-.14.32-.35.539-.632.219-.281.469-.633.75-1.055l-.375-.234zm.773-8.133a1.14 1.14 0 00-.375-.867 1.142 1.142 0 00-.867-.375c-.344 0-.64.125-.89.375a1.178 1.178 0 00-.352.867c0 .344.117.64.351.89.25.25.547.376.891.376s.633-.125.867-.375c.25-.25.375-.547.375-.89z" fill="#007AB7"/></svg>
